packages/kaspersky-hexa-ui-icons/src/iconsSVGs/24/ShareLinkSolid.svg

<svg width="24" height="24" viewBox="0 0 24 24" fill="none" xmlns="http://www.w3.org/2000/svg">
<path fill-rule="evenodd" clip-rule="evenodd" d="M17.8127 1.30884C15.8659 1.30884 14.2876 2.8871 14.2876 4.83398C14.2876 5.12819 14.3236 5.41399 14.3916 5.68718L8.54305 9.28312C7.91871 8.72189 7.09286 8.3804 6.18726 8.3804C4.24037 8.3804 2.66211 9.95866 2.66211 11.9055C2.66211 13.8524 4.24037 15.4307 6.18726 15.4307C7.05677 15.4307 7.85276 15.1159 8.46746 14.594L14.4086 18.2469C14.3297 18.5399 14.2876 18.8479 14.2876 19.1658C14.2876 21.1127 15.8659 22.691 17.8127 22.691C19.7596 22.691 21.3379 21.1127 21.3379 19.1658C21.3379 17.2189 19.7596 15.6407 17.8127 15.6407C16.907 15.6407 16.0811 15.9822 15.4568 16.5436L9.56411 12.9205C9.66057 12.5991 9.7124 12.2584 9.7124 11.9055C9.7124 11.5876 9.6703 11.2794 9.59137 10.9864L15.407 7.41064C16.0369 7.99902 16.8828 8.35913 17.8127 8.35913C19.7596 8.35913 21.3379 6.78087 21.3379 4.83398C21.3379 2.8871 19.7596 1.30884 17.8127 1.30884Z" fill="black"/>
</svg>

<svg xmlns="http://www.w3.org/2000/svg" width="24" height="24" fill="none" viewBox="0 0 24 24"><path fill="#000" fill-rule="evenodd" d="M17.8127 1.3088c-1.9468 0-3.5251 1.5783-3.5251 3.5252 0 .2942.036.58.104.8532L8.543 9.2832a3.512 3.512 0 0 0-2.3557-.9028c-1.947 0-3.5252 1.5783-3.5252 3.5251s1.5783 3.5252 3.5252 3.5252a3.51 3.51 0 0 0 2.2802-.8367l5.9411 3.6529c-.0789.293-.121.601-.121.9189 0 1.9469 1.5783 3.5252 3.5251 3.5252s3.5252-1.5783 3.5252-3.5252-1.5783-3.5251-3.5252-3.5251a3.51 3.51 0 0 0-2.3559.9029l-5.8927-3.6231a3.53 3.53 0 0 0 .1483-1.015c0-.3179-.0421-.6261-.121-.9191l5.8156-3.5758c.6299.5884 1.4758.9485 2.4057.9485 1.9469 0 3.5252-1.5782 3.5252-3.5251s-1.5783-3.5252-3.5252-3.5252"/></svg>
